X:129
T:Blanchards Hornpipe. JJo.129
T:Fishers Hornpipe,aka. JJo.129
S:J.Jones MS,1801,N.Shrops.
A:N Shropshire
Z:Neil Brookes 2006
M:4/4
L:1/8
Q:1/2=90
K:G
gdBd cedc|BdBd cedc|BGG2 cGG2|BGG2 AFD2|!
gdBd cedc|BdBd cedc|Bdgb c’agf|g2g2g4::!
afdf afc’a|bgdg bgd’b|afdf afc’a|bgfe d3d|!
ecGc ecge|dBGB dBge|dBec dcBA|G2G2G4:|

